public/svg/reqable.svg

<svg xmlns="http://www.w3.org/2000/svg" xmlns:xlink="http://www.w3.org/1999/xlink" width="24px" height="24px"
  viewBox="0 0 24 24" version="1.1">
  <g id="ic_reqable" stroke="none" stroke-width="1" fill="none" fill-rule="evenodd">
    <path
      d="M21.980756,2.9587233 C21.9288937,2.8526944 21.7925729,2.84044774 21.6945241,2.84044774 C21.3548157,2.84044774 20.6899267,3.02235152 19.6836109,3.29771096 L19.3548895,3.38751983 C17.827087,3.80412413 16.3639562,4.98274309 15.7391615,5.48599934 C15.7310385,5.49258533 15.7229155,5.49906245 15.7149487,5.50548514 C16.2847569,4.72779476 17.7925122,2.32739415 17.6671262,2.04876894 C17.6531713,2.01779849 17.6258343,2 17.5921967,2 C17.4546263,2 17.3016429,2.15806361 17.0238465,2.44496213 C16.6281623,2.85367414 15.9659288,3.53774558 14.7716904,4.35985054 C14.0052117,4.88743683 13.1782791,5.64161362 12.4487705,6.30696128 C11.5122293,7.16117971 10.6275504,7.96798994 10.2096841,7.96798994 C10.1313179,7.96798994 10.0732072,7.93870681 10.0320193,7.87845322 C9.48944405,7.08443395 8.93140381,6.65716144 8.37346771,6.60855579 C8.25521546,6.59826859 8.13300584,6.58760039 8.0087134,6.58760039 C7.54080731,6.58760039 7.01161416,6.72247698 6.31397273,7.70068609 C6.15885452,7.91818684 4.65557732,8.09758686 3.55798188,8.22859895 C2.97515605,8.29816001 2.47173783,8.35825031 2.20430341,8.41551026 C2.05850583,8.44675287 1.99430283,8.46319061 2.00039508,8.52627454 C2.00633113,8.58729014 2.06220284,8.59240652 2.23335879,8.59240652 C2.44059964,8.59240652 2.8137373,8.57591435 3.24581885,8.55680955 C3.90524048,8.52768971 4.72587258,8.49138515 5.42085841,8.49138515 C6.16864379,8.49138515 6.62691683,8.53427569 6.78286817,8.61875046 C7.38662637,8.94603575 8.27437743,10.163082 9.04439694,11.7192792 C9.79171368,13.2293201 11.7032241,14.8291155 12.9130316,15.2507273 C13.8384818,15.5731684 13.984748,16.4311969 14.2060999,17.7299964 C14.2625444,18.0610374 14.3265392,18.4362207 14.4093314,18.8298557 C14.6870758,20.1495018 14.8430792,20.3274323 14.9590403,20.3274323 C15.0591199,20.3274323 15.1234271,20.193481 15.1676871,19.8931383 C15.1738835,19.8510098 15.1787781,19.8111673 15.1826834,19.7737197 C15.5988834,21.2895302 15.8168508,21.4848781 15.9603052,21.4848781 C15.9909227,21.4848781 16.0182597,21.4708897 16.0372655,21.4454166 C16.1225571,21.3310056 16.0377341,20.9554956 15.892301,20.3521977 C15.8163301,20.0371591 15.7147925,19.6158194 15.7288515,19.4929718 C15.8441878,19.6094512 16.1552574,20.2121503 16.3869193,20.660977 C16.9138735,21.6820766 17.0973181,22 17.2178093,22 C17.2317122,22 17.2451464,21.9961355 17.2568623,21.9887875 C17.3831334,21.909538 17.2627983,21.549105 16.912832,20.6149295 C16.7286064,20.1231579 16.5381843,19.6148941 16.5174602,19.3952162 C16.6238404,19.4780036 16.8864843,19.8317962 17.0835714,20.0973583 C17.4921691,20.6477506 17.6822788,20.8889826 17.7883986,20.8889282 C17.8116741,20.8889282 17.8326065,20.8789131 17.8472904,20.8608425 C17.8706701,20.8319948 17.8760333,20.7867638 17.8645258,20.7141547 C17.8170374,20.4132133 17.4309862,19.4934072 17.0221802,18.5195525 C16.6716933,17.6845477 16.3092821,16.8210762 16.2234698,16.4805645 C16.0351306,15.7323206 14.9361813,12.8978438 14.6039711,12.2033218 C14.3830878,11.741541 15.1963259,11.2117231 15.7900865,10.8248373 C16.0507518,10.6550169 16.2758528,10.5083291 16.3921785,10.3867878 C16.5797366,10.1907323 16.7878627,10.0940653 17.0082253,9.99168315 C17.2275986,9.88979091 17.4543659,9.78441517 17.6556186,9.57409912 C17.9258649,9.29155497 17.9713746,9.0538064 18.0153742,8.82389569 C18.0370355,8.71062766 18.0574993,8.60367345 18.1039462,8.49040542 C18.1649208,8.34175813 18.3703392,8.25614034 18.58789,8.16551503 C18.8427755,8.05932284 19.1316629,7.93892453 19.2678795,7.68266988 C19.3635332,7.50272556 19.4211232,7.29028676 19.4768908,7.08481495 C19.5593706,6.78060782 19.6373202,6.49321943 19.8197755,6.43868095 C20.1700021,6.33406723 20.7225749,5.9701508 20.8271326,5.61505197 L20.8445242,5.55534268 C20.9462701,5.20514251 21.1844929,4.38510588 21.7762228,3.52876469 C21.9745075,3.2415396 22.0357425,3.07106603 21.980756,2.9587233 Z"
      id="Path" fill="#FCB334" fill-rule="nonzero" />
  </g>
</svg>

<svg xmlns="http://www.w3.org/2000/svg" width="24" height="24" viewBox="0 0 24 24"><path d="M21.98 2.959c-.051-.106-.187-.119-.285-.119-.34 0-1.005.182-2.011.458l-.33.09c-1.527.416-2.99 1.595-3.615 2.098l-.024.02c.57-.778 2.078-3.179 1.952-3.457A.08.08 0 0 0 17.592 2c-.137 0-.29.158-.568.445-.396.409-1.058 1.093-2.252 1.915-.767.527-1.594 1.282-2.323 1.947-.937.854-1.821 1.661-2.24 1.661a.2.2 0 0 1-.177-.09c-.543-.794-1.1-1.22-1.659-1.27-.118-.01-.24-.02-.364-.02-.468 0-.997.134-1.695 1.113-.155.217-1.658.397-2.756.528-.583.07-1.086.13-1.354.187-.145.03-.21.047-.204.11.006.061.062.066.233.066.208 0 .58-.016 1.013-.035.66-.03 1.48-.066 2.175-.066.748 0 1.206.043 1.362.128.604.327 1.491 1.544 2.261 3.1.748 1.51 2.66 3.11 3.869 3.532.925.322 1.072 1.18 1.293 2.479.057.331.12.706.203 1.1.278 1.32.434 1.497.55 1.497.1 0 .164-.134.209-.434l.015-.12c.416 1.517.634 1.712.777 1.712.03 0 .058-.014.077-.04.086-.114 0-.49-.145-1.093-.076-.315-.177-.736-.163-.859.115.116.426.72.658 1.168.527 1.021.71 1.339.83 1.339a.073.073 0 0 0 .04-.011c.126-.08.006-.44-.344-1.374-.184-.492-.375-1-.396-1.22.107.083.37.437.567.702.408.55.598.792.704.792.024 0 .045-.01.06-.028.023-.029.028-.074.017-.147-.048-.3-.434-1.22-.843-2.194-.35-.835-.713-1.699-.799-2.04-.188-.748-1.287-3.582-1.619-4.277-.22-.461.592-.991 1.186-1.378.26-.17.486-.317.602-.438.188-.196.396-.293.616-.395.22-.102.446-.208.648-.418.27-.282.315-.52.36-.75a1.66 1.66 0 0 1 .088-.334c.06-.148.266-.234.484-.324.255-.107.544-.227.68-.483.096-.18.153-.393.209-.598.082-.304.16-.592.343-.646.35-.105.903-.469 1.007-.824l.018-.06c.101-.35.34-1.17.931-2.026.199-.287.26-.458.205-.57z" fill="#FCB334"/></svg>
